X:19058
T:Sloe, The
R:Reel
C:Trad.
O:England, East Anglia
Z:Paul Hardy's Session Tunebook 2015 (see www.paulhardy.net). Creative Commons cc by-nc-sa licenced.
M:4/4
L:1/8
Q:1/4=180
K:D
A2|"D".d2A2 d2"A"e2|"D"f2>e2 d2c2|"G"B2A2 BcdB|"D"A2>"G"G2 "D"F2A2|.d2A2 d2"A"e2|"D"f2>e2 d2c2|"G"B2>A2 B2c2|"D"d4-d2:|
|:A2|"A".B2 "D" A2 F2A2|"A" (3BcB "D" A2 F2dd|d2 "A"cc c2"G"BB|B2 "D"A2 A2dd|"A"d2c2 c2ee|"D"e2d2 d2f2|f2 "A" e2 B2 c2|"D"d4-d2:|

